assets/resources/icons/services/Wifi.svg

<svg width="50" height="50" viewBox="0 0 50 50" fill="none" xmlns="http://www.w3.org/2000/svg">
<path d="M24.9999 11.1995C17.5999 11.1995 10.5999 14.0995 5.34985 19.3995L7.19985 21.2495C11.9999 16.4495 18.2999 13.8495 25.0499 13.8495C31.7999 13.8495 38.0999 16.4995 42.8999 21.2495L44.7499 19.3995C39.3999 14.0995 32.3999 11.1995 24.9999 11.1995ZM24.9999 18.9995C19.6499 18.9995 14.6499 21.0995 10.8499 24.8995L12.6999 26.7495C15.9999 23.4495 20.3499 21.5995 24.9999 21.5995C29.6499 21.5995 33.9999 23.3995 37.2999 26.6995L39.1499 24.8495C35.3499 21.0995 30.3499 18.9995 24.9999 18.9995ZM24.9999 26.7995C21.7499 26.7995 18.6999 28.0995 16.3499 30.3995L18.1999 32.2495C20.0499 30.4495 22.4499 29.4495 24.9999 29.4495C27.5499 29.4495 29.9499 30.4495 31.7999 32.2495L33.6499 30.3995C31.2999 28.0995 28.2499 26.7995 24.9999 26.7995ZM24.9999 34.5995C23.8499 34.5995 22.7499 35.0495 21.8999 35.8995L24.9999 38.9995L28.0999 35.8995C27.2499 35.0995 26.1499 34.5995 24.9999 34.5995Z" fill="#876671"/>
</svg>

<?xml version="1.0" encoding="utf-8"?>
<!-- Generator: Adobe Illustrator 25.0.0, SVG Export Plug-In . SVG Version: 6.00 Build 0)  -->
<svg version="1.1" id="Capa_1" xmlns="http://www.w3.org/2000/svg" xmlns:xlink="http://www.w3.org/1999/xlink" x="0px" y="0px"
	 viewBox="0 0 50 50" style="enable-background:new 0 0 50 50;" xml:space="preserve">
<style type="text/css">
	.st0{fill:#A52016;}
</style>
<path class="st0" d="M25,11.2c-7.4,0-14.4,2.9-19.7,8.2l1.8,1.9c4.8-4.8,11.1-7.4,17.9-7.4s13,2.7,17.8,7.4l1.9-1.9
	C39.4,14.1,32.4,11.2,25,11.2z M25,19c-5.4,0-10.4,2.1-14.2,5.9l1.8,1.9c3.3-3.3,7.6-5.1,12.3-5.1s9,1.8,12.3,5.1l1.8-1.8
	C35.3,21.1,30.3,19,25,19z M25,26.8c-3.2,0-6.3,1.3-8.7,3.6l1.9,1.9c1.9-1.8,4.2-2.8,6.8-2.8s4.9,1,6.8,2.8l1.8-1.9
	C31.3,28.1,28.2,26.8,25,26.8z M25,34.6c-1.2,0-2.2,0.5-3.1,1.3L25,39l3.1-3.1C27.2,35.1,26.1,34.6,25,34.6z"/>
</svg>
